X:1
T: Winnie Peg
C:Bruce Shawyer
R:Jig
I:speed 180
K:D
M:6/8
L:1/16
A,2|D4D2 D2F2A2|d4A2 F4A2|B4A2 G4F2|E4C2 A,4A,2|D4D2 D2F2A2|d4A2 F4A2|B4G2 E4C2|D6 D4A,2|
D4D2 D2F2A2|d4A2 F4A2|B4A2 G4F2|E4C2 A,4A,2|D4D2 D2F2A2|d4A2 F4A2|B4G2 E4C2|D6 D4d2|
f4d2 A4f2|e4c2 A4c2|B4A2 B2c2d2|e4c2 A4A2|f4d2 A4f2|e4c2 A4c2|B4G2 E4C2|D6 D4d2|
f4d2 A4f2|e4c2 A4c2|B4A2 B2c2d2|e4c2 A4A2|f4d2 A4f2|e4c2 A4c2|B4G2 E4C2|D6 D4||
